Badges/Roblox-Styled/Original/link-test-place.svg

<svg width="100" height="32" viewBox="0 0 100 32" fill="none" xmlns="http://www.w3.org/2000/svg">
<g filter="url(#filter0_i_24_146)">
<rect width="100" height="32" rx="4" fill="#335FFF"/>
<path d="M18.5703 10C19.1224 10 19.6458 10.125 20.1406 10.375C20.625 10.6198 21.0312 10.9557 21.3594 11.3828C21.6927 11.8255 21.9089 12.3203 22.0078 12.8672L23.0781 18.6797C23.1302 18.9609 23.138 19.2448 23.1016 19.5312C23.0651 19.8177 22.9896 20.0911 22.875 20.3516C22.651 20.8464 22.3229 21.2422 21.8906 21.5391C21.4844 21.8203 21.0312 21.9818 20.5312 22.0234C20.0312 22.0703 19.5547 21.9922 19.1016 21.7891C18.6224 21.5755 18.2318 21.2474 17.9297 20.8047L16.6953 19.0078H15.3281L14.3203 20.625C14.0286 21.0885 13.6458 21.4401 13.1719 21.6797C12.7188 21.9089 12.237 22.0104 11.7266 21.9844C11.2161 21.9635 10.7474 21.8229 10.3203 21.5625C9.86719 21.2812 9.51562 20.8958 9.26562 20.4062C9.125 20.1354 9.03125 19.849 8.98438 19.5469C8.9375 19.2448 8.9375 18.9427 8.98438 18.6406L9.875 12.9609C9.96354 12.3984 10.1745 11.8906 10.5078 11.4375C10.8307 10.9896 11.237 10.6406 11.7266 10.3906C12.2318 10.1302 12.7656 10 13.3281 10H18.5703ZM19.0312 15.6562C18.8229 15.6562 18.6458 15.7292 18.5 15.875C18.3542 16.0208 18.2812 16.1979 18.2812 16.4062C18.2812 16.6146 18.3542 16.7917 18.5 16.9375C18.6458 17.0833 18.8229 17.1562 19.0312 17.1562C19.2396 17.1562 19.4167 17.0833 19.5625 16.9375C19.7083 16.7917 19.7812 16.6146 19.7812 16.4062C19.7812 16.1979 19.7083 16.0208 19.5625 15.875C19.4167 15.7292 19.2396 15.6562 19.0312 15.6562ZM12.5625 13.3438C12.4948 13.3438 12.4349 13.3698 12.3828 13.4219C12.3359 13.4688 12.3125 13.526 12.3125 13.5938V14.4609H11.4453C11.3724 14.4609 11.3125 14.487 11.2656 14.5391C11.2188 14.5859 11.1953 14.6432 11.1953 14.7109V15.3281C11.1953 15.3958 11.2188 15.4557 11.2656 15.5078C11.3125 15.5547 11.3724 15.5781 11.4453 15.5781H12.3125V16.4453C12.3125 16.513 12.3359 16.5729 12.3828 16.625C12.4349 16.6719 12.4948 16.6953 12.5625 16.6953H13.1797C13.2474 16.6953 13.3047 16.6719 13.3516 16.625C13.4036 16.5729 13.4297 16.513 13.4297 16.4453V15.5781H14.2969C14.3646 15.5781 14.4219 15.5547 14.4688 15.5078C14.5208 15.4557 14.5469 15.3958 14.5469 15.3281V14.7109C14.5469 14.638 14.5208 14.5807 14.4688 14.5391C14.4219 14.4922 14.3646 14.4661 14.2969 14.4609H13.4297V13.5938C13.4297 13.5208 13.4036 13.4635 13.3516 13.4219C13.3047 13.375 13.2474 13.349 13.1797 13.3438H12.5625ZM17.5312 14.1562C17.3229 14.1562 17.1458 14.2292 17 14.375C16.8542 14.5208 16.7812 14.6979 16.7812 14.9062C16.7812 15.1146 16.8542 15.2917 17 15.4375C17.1458 15.5833 17.3229 15.6562 17.5312 15.6562C17.7396 15.6562 17.9167 15.5833 18.0625 15.4375C18.2083 15.2917 18.2812 15.1146 18.2812 14.9062C18.2812 14.7708 18.2474 14.6458 18.1797 14.5312C18.112 14.4167 18.0208 14.3255 17.9062 14.2578C17.7917 14.1901 17.6667 14.1562 17.5312 14.1562ZM20.5312 14.1562C20.3958 14.1562 20.2708 14.1901 20.1562 14.2578C20.0417 14.3255 19.9505 14.4167 19.8828 14.5312C19.8151 14.6458 19.7812 14.7708 19.7812 14.9062C19.7812 15.0417 19.8151 15.1667 19.8828 15.2812C19.9505 15.3958 20.0417 15.487 20.1562 15.5547C20.2708 15.6224 20.3958 15.6562 20.5312 15.6562C20.7396 15.6562 20.9167 15.5833 21.0625 15.4375C21.2083 15.2917 21.2812 15.1146 21.2812 14.9062C21.2812 14.6979 21.2083 14.5208 21.0625 14.375C20.9167 14.2292 20.7396 14.1562 20.5312 14.1562ZM19.0312 12.6562C18.8229 12.6562 18.6458 12.7292 18.5 12.875C18.3542 13.0208 18.2812 13.1979 18.2812 13.4062C18.2812 13.6146 18.3542 13.7917 18.5 13.9375C18.6458 14.0833 18.8229 14.1562 19.0312 14.1562C19.2396 14.1562 19.4167 14.0833 19.5625 13.9375C19.7083 13.7917 19.7812 13.6146 19.7812 13.4062C19.7812 13.1979 19.7083 13.0208 19.5625 12.875C19.4167 12.7292 19.2396 12.6562 19.0312 12.6562Z" fill="white"/>
<path d="M34.028 12.3V13.73H31.806V20H30.31V13.73H28.088V12.3H34.028ZM36.5432 20.11C34.7722 20.11 33.6172 18.911 33.6172 17.129C33.6172 15.347 34.7722 14.126 36.4222 14.126C38.2042 14.126 39.0952 15.347 39.0952 17.052V17.547H35.0362C35.1572 18.449 35.7292 18.834 36.5432 18.834C37.1372 18.834 37.5882 18.647 38.0392 18.273L38.8862 19.285C38.2702 19.857 37.3902 20.11 36.5432 20.11ZM36.4222 15.314C35.7182 15.314 35.2562 15.677 35.0802 16.403H37.6982C37.6102 15.71 37.1482 15.314 36.4222 15.314ZM42.1359 20.11C41.1459 20.11 40.3979 19.758 39.7489 19.23L40.4969 18.218C40.9699 18.625 41.5089 18.9 42.1359 18.9C42.7299 18.9 43.0489 18.702 43.0489 18.339C43.0489 17.976 42.7849 17.866 42.3449 17.778L41.6079 17.624C40.6069 17.415 40.0129 16.92 40.0129 15.974C40.0129 14.83 40.8379 14.126 42.1689 14.126C43.0049 14.126 43.7639 14.379 44.3579 14.918L43.5769 15.886C43.1479 15.534 42.6859 15.336 42.1469 15.336C41.7399 15.336 41.3769 15.49 41.3769 15.82C41.3769 16.084 41.5529 16.26 42.1139 16.381L42.9279 16.557C43.7969 16.744 44.4459 17.195 44.4459 18.152C44.4459 19.384 43.5329 20.11 42.1359 20.11ZM48.1343 18.812C48.4643 18.812 48.7173 18.768 49.0143 18.691V19.934C48.6733 20.044 48.3323 20.11 47.9143 20.11C46.6163 20.11 45.8573 19.373 45.8573 17.965V15.446H44.9113V14.236H45.8573V12.74H47.2653V14.236H48.8933V15.446H47.2653V17.943C47.2653 18.526 47.6173 18.812 48.1343 18.812ZM54.0569 20H52.6489V14.236H54.0569V15.05L54.2329 15.116C54.5189 14.555 55.0359 14.126 55.8939 14.126C57.1699 14.126 57.8629 14.995 57.8629 16.293V20H56.4549V16.667C56.4549 15.798 56.0149 15.424 55.3219 15.424C54.7499 15.424 54.2879 15.743 54.0569 16.194V20ZM61.807 20.11C60.058 20.11 58.958 18.9 58.958 17.118C58.958 15.336 60.058 14.126 61.807 14.126C63.556 14.126 64.656 15.336 64.656 17.118C64.656 18.9 63.556 20.11 61.807 20.11ZM61.818 18.812C62.654 18.812 63.226 18.196 63.226 17.118C63.226 16.04 62.654 15.424 61.818 15.424C60.982 15.424 60.388 16.04 60.388 17.118C60.388 18.196 60.982 18.812 61.818 18.812ZM68.1733 20H66.5123L65.2473 14.236H66.7763L67.4033 18.174H67.5353L68.5913 14.236H70.2193L71.2753 18.174H71.4073L72.0343 14.236H73.5633L72.2983 20H70.6373L69.4713 15.897H69.3393L68.1733 20Z" fill="white"/>
<path d="M83.625 11.1875C83.7812 11.1875 83.9141 11.2422 84.0234 11.3516C84.1328 11.4609 84.1875 11.5938 84.1875 11.75C84.1875 11.9062 84.1328 12.0391 84.0234 12.1484C83.9141 12.2578 83.7812 12.3125 83.625 12.3125H80.0625V20.1875H87.9375V16.625C87.9375 16.4688 87.9922 16.3359 88.1016 16.2266C88.2109 16.1172 88.3438 16.0625 88.5 16.0625C88.6562 16.0625 88.7891 16.1172 88.8984 16.2266C89.0078 16.3359 89.0625 16.4688 89.0625 16.625V20.375C89.0625 20.543 89.0195 20.6992 88.9336 20.8438C88.8516 20.9883 88.7383 21.1016 88.5938 21.1836C88.4492 21.2695 88.293 21.3125 88.125 21.3125H79.875C79.707 21.3125 79.5508 21.2695 79.4062 21.1836C79.2617 21.1016 79.1465 20.9883 79.0605 20.8438C78.9785 20.6992 78.9375 20.543 78.9375 20.375V12.125C78.9375 11.957 78.9785 11.8008 79.0605 11.6562C79.1465 11.5117 79.2617 11.3984 79.4062 11.3164C79.5508 11.2305 79.707 11.1875 79.875 11.1875H83.625ZM88.5 11.1875C88.6562 11.1875 88.7891 11.2422 88.8984 11.3516C89.0078 11.4609 89.0625 11.5938 89.0625 11.75V14C89.0625 14.1562 89.0078 14.2891 88.8984 14.3984C88.7891 14.5078 88.6562 14.5625 88.5 14.5625C88.3438 14.5625 88.2109 14.5078 88.1016 14.3984C87.9922 14.2891 87.9375 14.1562 87.9375 14V13.1094L84.3984 16.6484C84.2891 16.7578 84.1562 16.8125 84 16.8125C83.8438 16.8125 83.7109 16.7578 83.6016 16.6484C83.4922 16.5391 83.4375 16.4062 83.4375 16.25C83.4375 16.0938 83.4922 15.9609 83.6016 15.8516L87.1406 12.3125H86.25C86.0938 12.3125 85.9609 12.2578 85.8516 12.1484C85.7422 12.0391 85.6875 11.9062 85.6875 11.75C85.6875 11.5938 85.7422 11.4609 85.8516 11.3516C85.9609 11.2422 86.0938 11.1875 86.25 11.1875H88.5Z" fill="white"/>
</g>
<defs>
<filter id="filter0_i_24_146" x="0" y="-2" width="100" height="34" filterUnits="userSpaceOnUse" color-interpolation-filters="sRGB">
<feFlood flood-opacity="0" result="BackgroundImageFix"/>
<feBlend mode="normal" in="SourceGraphic" in2="BackgroundImageFix" result="shape"/>
<feColorMatrix in="SourceAlpha" type="matrix" values="0 0 0 0 0 0 0 0 0 0 0 0 0 0 0 0 0 0 127 0" result="hardAlpha"/>
<feOffset dy="-2"/>
<feGaussianBlur stdDeviation="1.65"/>
<feComposite in2="hardAlpha" operator="arithmetic" k2="-1" k3="1"/>
<feColorMatrix type="matrix" values="0 0 0 0 1 0 0 0 0 1 0 0 0 0 1 0 0 0 0.11 0"/>
<feBlend mode="normal" in2="shape" result="effect1_innerShadow_24_146"/>
</filter>
</defs>
</svg>

<svg xmlns="http://www.w3.org/2000/svg" width="100" height="32" fill="none">
  <g filter="url(#a)">
    <rect width="100" height="32" fill="#335fff" rx="4"/>
    <path fill="#fff" d="M18.57 10q.829 0 1.57.375.727.367 1.22 1.008.5.664.648 1.484l1.07 5.813q.078.421.024.851-.055.43-.227.82a2.82 2.82 0 0 1-2.344 1.672q-.75.071-1.43-.234a2.75 2.75 0 0 1-1.171-.984l-1.235-1.797h-1.367l-1.008 1.617a2.87 2.87 0 0 1-2.593 1.36q-.766-.032-1.407-.422a2.87 2.87 0 0 1-1.054-1.157 2.8 2.8 0 0 1-.282-.86 3 3 0 0 1 0-.905l.891-5.68q.134-.844.633-1.524.484-.67 1.219-1.046A3.45 3.45 0 0 1 13.328 10zm.461 5.656a.72.72 0 0 0-.531.219.72.72 0 0 0-.219.531q0 .313.219.532a.72.72 0 0 0 .531.218.72.72 0 0 0 .532-.218.72.72 0 0 0 .218-.532.72.72 0 0 0-.218-.531.72.72 0 0 0-.532-.219m-6.468-2.312a.25.25 0 0 0-.18.078.23.23 0 0 0-.07.172v.867h-.868a.23.23 0 0 0-.18.078.23.23 0 0 0-.07.172v.617q0 .102.07.18.07.07.18.07h.867v.867a.26.26 0 0 0 .07.18.26.26 0 0 0 .18.07h.618a.23.23 0 0 0 .172-.07.25.25 0 0 0 .078-.18v-.867h.867a.23.23 0 0 0 .172-.07.25.25 0 0 0 .078-.18v-.617a.21.21 0 0 0-.078-.172.26.26 0 0 0-.172-.078h-.867v-.867a.21.21 0 0 0-.078-.172.26.26 0 0 0-.172-.078zm4.968.812a.72.72 0 0 0-.531.219.72.72 0 0 0-.219.531q0 .313.219.531a.72.72 0 0 0 .531.22.72.72 0 0 0 .532-.22.72.72 0 0 0 .218-.53.7.7 0 0 0-.101-.376.8.8 0 0 0-.274-.273.7.7 0 0 0-.375-.102m3 0a.7.7 0 0 0-.375.102.8.8 0 0 0-.273.273.7.7 0 0 0-.102.375q0 .203.102.375a.8.8 0 0 0 .273.274q.172.1.375.101a.72.72 0 0 0 .532-.219.72.72 0 0 0 .218-.53.72.72 0 0 0-.218-.532.72.72 0 0 0-.532-.219m-1.5-1.5a.72.72 0 0 0-.531.219.72.72 0 0 0-.219.531q0 .313.219.531a.72.72 0 0 0 .531.22.72.72 0 0 0 .532-.22.72.72 0 0 0 .218-.53.72.72 0 0 0-.218-.532.72.72 0 0 0-.532-.219m14.997-.356v1.43h-2.222V20H30.31v-6.27h-2.222V12.3zm2.515 7.81c-1.77 0-2.926-1.199-2.926-2.981s1.155-3.003 2.805-3.003c1.782 0 2.673 1.221 2.673 2.926v.495h-4.059c.121.902.693 1.287 1.507 1.287.594 0 1.045-.187 1.496-.561l.847 1.012c-.616.572-1.496.825-2.343.825m-.12-4.796c-.705 0-1.167.363-1.343 1.089h2.618c-.088-.693-.55-1.089-1.276-1.089m5.713 4.796c-.99 0-1.738-.352-2.387-.88l.748-1.012c.473.407 1.012.682 1.639.682.594 0 .913-.198.913-.561s-.264-.473-.704-.561l-.737-.154c-1.001-.209-1.595-.704-1.595-1.65 0-1.144.825-1.848 2.156-1.848.836 0 1.595.253 2.189.792l-.781.968c-.43-.352-.891-.55-1.43-.55-.407 0-.77.154-.77.484 0 .264.176.44.737.561l.814.176c.869.187 1.518.638 1.518 1.595 0 1.232-.913 1.958-2.31 1.958m5.998-1.298c.33 0 .583-.044.88-.121v1.243c-.34.11-.682.176-1.1.176-1.298 0-2.057-.737-2.057-2.145v-2.519h-.946v-1.21h.946V12.74h1.408v1.496h1.628v1.21h-1.628v2.497c0 .583.352.869.87.869M54.057 20h-1.408v-5.764h1.408v.814l.176.066c.286-.561.803-.99 1.66-.99 1.277 0 1.97.869 1.97 2.167V20h-1.408v-3.333c0-.869-.44-1.243-1.133-1.243-.572 0-1.034.319-1.265.77zm7.75.11c-1.749 0-2.849-1.21-2.849-2.992s1.1-2.992 2.849-2.992 2.849 1.21 2.849 2.992-1.1 2.992-2.849 2.992m.011-1.298c.836 0 1.408-.616 1.408-1.694s-.572-1.694-1.408-1.694-1.43.616-1.43 1.694.594 1.694 1.43 1.694M68.173 20h-1.66l-1.266-5.764h1.53l.626 3.938h.132l1.056-3.938h1.628l1.056 3.938h.132l.627-3.938h1.53L72.297 20h-1.66l-1.167-4.103h-.132zm15.452-8.812q.235 0 .398.164.165.164.165.398t-.165.398a.54.54 0 0 1-.398.165h-3.562v7.874h7.874v-3.562q0-.235.165-.398a.54.54 0 0 1 .398-.165q.235 0 .398.165.165.164.165.398v3.75a.9.9 0 0 1-.13.469.9.9 0 0 1-.34.34.9.9 0 0 1-.468.128h-8.25a.9.9 0 0 1-.469-.128.93.93 0 0 1-.346-.34.93.93 0 0 1-.123-.469v-8.25q0-.252.124-.469a.93.93 0 0 1 .345-.34.9.9 0 0 1 .469-.129zm4.875 0q.235 0 .398.164.165.164.165.398V14q0 .235-.165.398a.54.54 0 0 1-.398.165.54.54 0 0 1-.398-.165.54.54 0 0 1-.165-.398v-.89l-3.539 3.538a.54.54 0 0 1-.398.165.54.54 0 0 1-.398-.165.54.54 0 0 1-.165-.398q0-.235.165-.398l3.539-3.54h-.891a.54.54 0 0 1-.398-.164.54.54 0 0 1-.165-.398q0-.235.165-.398a.54.54 0 0 1 .398-.165z"/>
  </g>
  <defs>
    <filter id="a" width="100" height="34" x="0" y="-2" color-interpolation-filters="sRGB" filterUnits="userSpaceOnUse">
      <feFlood flood-opacity="0" result="BackgroundImageFix"/>
      <feBlend in="SourceGraphic" in2="BackgroundImageFix" result="shape"/>
      <feColorMatrix in="SourceAlpha" result="hardAlpha" values="0 0 0 0 0 0 0 0 0 0 0 0 0 0 0 0 0 0 127 0"/>
      <feOffset dy="-2"/>
      <feGaussianBlur stdDeviation="1.65"/>
      <feComposite in2="hardAlpha" k2="-1" k3="1" operator="arithmetic"/>
      <feColorMatrix values="0 0 0 0 1 0 0 0 0 1 0 0 0 0 1 0 0 0 0.11 0"/>
      <feBlend in2="shape" result="effect1_innerShadow_24_146"/>
    </filter>
  </defs>
</svg>
